X: 4010
T: BONNIE DUNDEE
R: Reel.
%R: reel
B: James Kerr "Merry Melodies" v.4 p.04 #10
Z: 2016 John Chambers <jc:trillian.mit.edu>
M: C|
L: 1/8
K: A
(ucd) |\
e2ee e2fg | bagf e2(ed) |\
[1 cecA cecA | cBBB B2 :|\
[2 cecA BdBG | A2c2 A2 |]\
E2 |\
AGAB dcBA |
(BE)EE E2EG |\
B^ABc edcB | (dc)cc c2AB |\
cABc dBcd | ecde gfed |\
cecA BdBG | A2c2A2 |]

%%sep 1 1 500
%%sep 1 1 500

